packages/assets/static/images/icons/marker.svg

<svg width="24" height="24" viewBox="0 0 24 24" xmlns="http://www.w3.org/2000/svg">
<path d="M12 6C11.2583 6 10.5333 6.21993 9.91661 6.63199C9.29993 7.04404 8.81928 7.62971 8.53545 8.31494C8.25162 9.00016 8.17736 9.75416 8.32205 10.4816C8.46675 11.209 8.8239 11.8772 9.34835 12.4017C9.8728 12.9261 10.541 13.2833 11.2684 13.4279C11.9958 13.5726 12.7498 13.4984 13.4351 13.2145C14.1203 12.9307 14.706 12.4501 15.118 11.8334C15.5301 11.2167 15.75 10.4917 15.75 9.75C15.75 8.75544 15.3549 7.80161 14.6517 7.09835C13.9484 6.39509 12.9946 6 12 6ZM12 12C11.555 12 11.12 11.868 10.75 11.6208C10.38 11.3736 10.0916 11.0222 9.92127 10.611C9.75097 10.1999 9.70642 9.7475 9.79323 9.31105C9.88005 8.87459 10.0943 8.47368 10.409 8.15901C10.7237 7.84434 11.1246 7.63005 11.561 7.54323C11.9975 7.45642 12.4499 7.50097 12.861 7.67127C13.2722 7.84157 13.6236 8.12996 13.8708 8.49997C14.118 8.86998 14.25 9.30499 14.25 9.75C14.25 10.3467 14.0129 10.919 13.591 11.341C13.169 11.7629 12.5967 12 12 12ZM12 1.5C9.81273 1.50248 7.71575 2.37247 6.16911 3.91911C4.62247 5.46575 3.75248 7.56273 3.75 9.75C3.75 12.6938 5.11031 15.8138 7.6875 18.7734C8.84552 20.1108 10.1489 21.3151 11.5734 22.3641C11.6995 22.4524 11.8498 22.4998 12.0037 22.4998C12.1577 22.4998 12.308 22.4524 12.4341 22.3641C13.856 21.3147 15.1568 20.1104 16.3125 18.7734C18.8859 15.8138 20.25 12.6938 20.25 9.75C20.2475 7.56273 19.3775 5.46575 17.8309 3.91911C16.2843 2.37247 14.1873 1.50248 12 1.5ZM12 20.8125C10.4503 19.5938 5.25 15.1172 5.25 9.75C5.25 7.95979 5.96116 6.2429 7.22703 4.97703C8.4929 3.71116 10.2098 3 12 3C13.7902 3 15.5071 3.71116 16.773 4.97703C18.0388 6.2429 18.75 7.95979 18.75 9.75C18.75 15.1153 13.5497 19.5938 12 20.8125Z"/>
</svg>

<svg viewBox="0 0 24 24" xmlns="http://www.w3.org/2000/svg" aria-hidden="true" fill="currentColor"><path d="M12 6a3.75 3.75 0 1 0 0 7.5A3.75 3.75 0 0 0 12 6m0 6a2.25 2.25 0 1 1 0-4.5 2.25 2.25 0 0 1 0 4.5m0-10.5a8.26 8.26 0 0 0-8.25 8.25c0 2.944 1.36 6.064 3.938 9.023a23.8 23.8 0 0 0 3.885 3.591.75.75 0 0 0 .861 0 23.8 23.8 0 0 0 3.879-3.59c2.573-2.96 3.937-6.08 3.937-9.024A8.26 8.26 0 0 0 12 1.5m0 19.313c-1.55-1.22-6.75-5.696-6.75-11.063a6.75 6.75 0 0 1 13.5 0c0 5.365-5.2 9.844-6.75 11.063"/></svg>
